X: 608
T: Across The Black River
R: jig
M: 6/8
K: Bminor
efe e2c|B2A F2E|EFA CBA|c2e Bcd|
efe e2c|B2A F2E|BcB AFE|1 F3 Fcd:|2 F3 F2A||

